X: 46
T:Harvest Home - First Violin
M:4/4
L:1/8
Q:90
S:Found on Internet
R:Reel
K:D
A2|:"D"DAFA DAFA|defe d-cB-A|"A7"eAfA gAfA|((3efe (3dcB) ((3ABA (3GFE)|!
"D"DAFA DAFA|defe d-cB-A|"D"dAFA "A7"f-gec|[1"D"d2 {de}d-c d2A2:|!
[2"D"d2 {de}d-c d2 c-d||"A7"eA(3AAA fA(3AAA|gA(3AAA fA(3AAA|eAfA gAfA|((
3efe (3dcB) ((3ABA (3GFE)|!
"D"DAFA DAFA|defe d-cB-A|dAFA"A7" f-gec|[1"D"d2 {de}d-c d c-d:|[2"D"d2 {
de}d-c d4|]
